X:183
T:The Garmon (German?) Waltz
O:No183 William Clarke of Feltwell
M:2/4
L:1/16
N:In m.s. key signature is F
N:In m.s. repeat marks at beginning but not at end of B music
N:In m.s. D.C. marked at end of B music
K:Bb
d3e fedc|B2B2c4|d2dB e2ec|d2dB c4|d3e fedc|B2B2c4|d2dB e2ec dcBAB4:|d3e f2g2|a2b2f4|b2ba g2gf|e2edc4|d3e f2g2|a2b2f4|b2ba g2gf|dfegf4|

